static/assets/images/networks/syscoin.svg

<svg xmlns="http://www.w3.org/2000/svg" fill="none" viewBox="0 0 512 512"><path fill="#fff" fill-rule="evenodd" d="M512 256c0 141.385-114.615 256-256 256S0 397.385 0 256 114.615 0 256 0s256 114.615 256 256" clip-rule="evenodd"/><path fill="#2D5DF8" d="M228.283 278.191c15.311 7.942 41.758 26.832 31.8 47.652-9.315 19.426-41.437 19.641-58.89 16.636-37.047-6.44-75.594-23.075-101.185-51.194a99.9 99.9 0 0 1-23.465-41.958 100.04 100.04 0 0 1-1.162-48.087c17.56-72.659 98.187-111.617 165.643-118.916 59.833-6.392 119.827 10.515 167.571 47.223a.2.2 0 0 1 .073.058.23.23 0 0 1 .058.174.24.24 0 0 1-.163.21.23.23 0 0 1-.183-.013c-1.07-.429-2.569-.536-3.747-.858-46.791-15.133-97.865-22.968-146.156-16.099-31.801 4.615-67.242 17.494-85.766 45.506-29.445 44.539 2.463 88.864 42.616 112.905z"/><path fill="#2D5DF8" d="M309.169 169.339c33.628 5.358 64.257 18.216 90.281 40.076 5.141 4.286 9.639 9.644 14.029 14.787q27.31 31.824 24.204 72.757c-3.534 44.684-38.768 82.08-76.037 102.868-83.534 46.076-183.133 38.897-259.277-18.216a.324.324 0 0 1-.05-.394.322.322 0 0 1 .371-.142 372.8 372.8 0 0 0 126.8 19.288c30.523-1.286 63.829-9.001 88.889-27.11 25.917-18.752 38.769-49.291 26.56-80.151-8.568-21.967-28.273-40.183-48.514-51.863-16.493-9.643-43.159-20.68-47.015-42.111-3.213-18.645 14.458-27.86 30.094-30.11q14.565-2.143 29.665.321"/></svg>

<svg width="512" height="512" viewBox="0 0 512 512" fill="none" xmlns="http://www.w3.org/2000/svg">
<path fill-rule="evenodd" clip-rule="evenodd" d="M512 256C512 397.385 397.385 512 256 512C114.615 512 0 397.385 0 256C0 114.615 114.615 0 256 0C397.385 0 512 114.615 512 256Z" fill="white"/>
<path d="M228.283 278.191C243.594 286.133 270.041 305.023 260.083 325.843C250.768 345.269 218.646 345.484 201.193 342.479C164.146 336.039 125.599 319.404 100.008 291.285C88.8912 279.425 80.8355 265.021 76.5432 249.327C72.2509 233.632 71.8521 217.124 75.3815 201.24C92.9416 128.581 173.568 89.6225 241.024 82.3244C300.857 75.9324 360.851 92.8393 408.595 129.547C408.623 129.561 408.648 129.581 408.668 129.605C408.689 129.628 408.705 129.656 408.715 129.686C408.725 129.716 408.728 129.747 408.726 129.779C408.724 129.81 408.716 129.841 408.702 129.869C408.688 129.897 408.668 129.922 408.644 129.943C408.621 129.964 408.593 129.98 408.563 129.989C408.503 130.01 408.437 130.005 408.38 129.976C407.31 129.547 405.811 129.44 404.633 129.118C357.842 113.985 306.768 106.15 258.477 113.019C226.676 117.634 191.235 130.513 172.711 158.525C143.266 203.064 175.174 247.389 215.327 271.43L228.283 278.191Z" fill="#2D5DF8"/>
<path d="M309.169 169.339C342.797 174.697 373.426 187.555 399.45 209.415C404.591 213.701 409.089 219.059 413.479 224.202C431.686 245.418 439.753 269.671 437.683 296.959C434.149 341.643 398.915 379.039 361.646 399.827C278.112 445.903 178.513 438.724 102.369 381.611C102.318 381.56 102.285 381.494 102.276 381.422C102.267 381.351 102.282 381.278 102.319 381.217C102.356 381.155 102.413 381.107 102.48 381.082C102.547 381.056 102.621 381.054 102.69 381.075C143.527 394.781 186.428 401.307 229.49 400.363C260.013 399.077 293.319 391.362 318.379 373.253C344.296 354.501 357.148 323.962 344.939 293.102C336.371 271.135 316.666 252.919 296.425 241.239C279.932 231.596 253.266 220.559 249.41 199.128C246.197 180.483 263.868 171.268 279.504 169.018C289.214 167.589 299.102 167.696 309.169 169.339Z" fill="#2D5DF8"/>
</svg>
